X: 41338
T: Turlupinage
R: reel
M: 4/4
K: Dmajor
|:d2>e2 fede|fede BAFD|d2>e2 fede|faab afed|
d2>e2 fede|fede BAFD|DEFA BAFA|dBAF D2 z2:|
|:B2>B2 AFAB|AFAd BAF2|B2>B2 AFAB|AFED BFD2|
B2>B2 AFAB AFAd BAF2|DEFA BAFA|dBAF D2 z2:|

